X: 87
T:Limerick Lads (#283)
M:4/4
L:1/8
S:Rice-Walsh manuscript
R:Reel
K:D
dBAF D2 DF|GFGA BA A2|dBAF D2 DF|GBAG FD D2:|
|:d2 de f2 ed|cAAA eAfA|1d2 de f2 ed|(3efg eg fd d2:|
2d2 de f2 ed|cAGE FD D2||

